cssgg/smartphone-shake.svg

<svg
  width="24"
  height="24"
  viewBox="0 0 24 24"
  fill="none"
  xmlns="http://www.w3.org/2000/svg"
>
  <path d="M13 14H11V16H13V14Z" fill="currentColor" />
  <path
    fill-rule="evenodd"
    clip-rule="evenodd"
    d="M8 7C8 5.89543 8.89543 5 10 5H14C15.1046 5 16 5.89543 16 7V17C16 18.1046 15.1046 19 14 19H10C8.89543 19 8 18.1046 8 17V7ZM10 7H14V17H10V7Z"
    fill="currentColor"
  />
  <path d="M18 9H20V15H18V9Z" fill="currentColor" />
  <path d="M0 14H2V10H0V14Z" fill="currentColor" />
  <path d="M6 15H4V9H6V15Z" fill="currentColor" />
  <path d="M24 10H22V14H24V10Z" fill="currentColor" />
</svg>

<svg viewBox="0 0 24 24" xmlns="http://www.w3.org/2000/svg"><g><path d="M13 14h-2v2h2v-2Z"/><path fill-rule="evenodd" d="M8 7c0-1.11.89-2 2-2h4c1.1 0 2 .89 2 2v10c0 1.1-.9 2-2 2h-4c-1.11 0-2-.9-2-2V7Zm2 0h4v10h-4V7Z"/><path d="M18 9h2v6h-2V9Z"/><path d="M0 14h2v-4H0v4Z"/><path d="M6 15H4V9h2v6Z"/><path d="M24 10h-2v4h2v-4Z"/></g></svg>
